X: 194
T: Baharın Gülşen Çağında
C: İbrahim Yıldırım
O: Turkey
F: http://compmusic.upf.edu/node/140
N: segah--turku--semai--baharin_gulsen--kars
N: makam= segah
N: form= turku
N: usul= semai = 3/4
M: 3/4
L: 1/16
K: C _1/4B _1/4e ^f 
Q: 1/4=60
%%MIDI tuningsystem comma53
dede dc3 dc3  | dede dc3 dc3  | e=fef ed3 ed3  | 
w:  ARANAĞME  |   |   | 
e=fef ed3 ed3  | cdcd cB3 cB3  | cdcd cB3 cB3  | 
w:   |   |   | 
dede dc3 dc3  | dede dc3 dc3  | e=fef ed3 ed3  | 
w:  ARANAĞME  |   |   | 
e=fef ed3 ed3  | cdcd cB3 cB3  | cdcd cB3 cB3  | 
w:   |   |   | 
B2G2 cdcd c_2/4BAG  | B2G2 cdcd c_2/4BAG  | \
w:   |   | 
B2G2 cdcd c_2/4BAG  | 
w:   | 
B2G2 cdcd c_2/4BAG  | dd3 d4 ed3  | d2d2 ed3 c4  | \
w:   |  Ba ha rın  gül  |  şen  ça ğın *  da    | 
d2d2 ed3 c4  | 
w:  Ne  ge zir *  sen   | 
c3d c3B c3B  | cdcd cB3 cB3  | e2e2 e2d2 d4  | \
w:  ba ğı  bül *  bül    |  SAZ  |  O hu dun  *  ağ  | 
d2d2 ded2 cdc2  | 
w:  lım_ a par *  *  dın    | 
d2d2 ed2c cdc2  | c3d c3B c3B  | cdcd cB3 cB3  | 
w:  Ol dun  men *  *  den   |  ya ğı  bül *  bül    |  SAZ  | 
d2d2 ed2c cdc2  | c3d ed2c cdc2  | c3d ed2c cdc2  | 
w:  Ol dun  men *  *  den   |  ya ğı  bül *  *  bül    |  ya ğı  bül *  *  bül    | 
c3d c3d c3B  | cd3 c3d c3B  | dede dc3 dc3  | \
w:  ya ğı  bül *  bül    |  ya ğı  bül *  bül    |  ARANAĞME  | 
dede dc3 dc3  | 
w:   | 
e=fef ed3 ed3  | e=fef ed3 ed3  | cdcd cB3 cB3  | 
w:   |   |   | 
cdcd cB3 cB3  | dede dc3 dc3  | dede dc3 dc3  | 
w:   |  ARANAĞME  |   | 
e=fef ed3 ed3  | e=fef ed3 ed3  | cdcd cB3 cB3  | 
w:   |   |   | 
cdcd cB3 cB3  | B2G2 cdcd c_2/4BAG  | \
w:   |   | 
B2G2 cdcd c_2/4BAG  | 
w:   | 
B2G2 cdcd c_2/4BAG  | B2G2 cdcd c_2/4BAG  | \
w:   |   | 
dd3 d4 ed3  | 
w:  Ba ha rın  gül  | 
d2d2 ed3 c4  | d2d2 ed3 c4  | c3d c3B c3B  | \
w:  şen  ça ğın *  da    |  Ne  ge zir *  sen   |  ba ğı  bül *  bül    | 
cdcd cB3 cB3  | 
w:  SAZ  | 
e2e2 e2d2 d4  | d2d2 ded2 cdc2  | d2d2 ed2c cdc2  | 
w:  O hu dun  *  ağ  |  lım_ a par *  *  dın    |  Ol dun  men *  *  den   | 
c3d c3B c3B  | cdcd cB3 cB3  | d2d2 ed2c cdc2  | 
w:  ya ğı  bül *  bül    |  SAZ  |  Ol dun  men *  *  den   | 
c3d ed2c cdc2  | c3d ed2c cdc2  | c3d c3d c3B  | 
w:  ya ğı  bül *  *  bül    |  ya ğı  bül *  *  bül    |  ya ğı  bül *  bül    | 
cd3 c3d c3B  | B12  | |


